Newaita-dark/.places-mint/32/folder-script.svg

<?xml version="1.0" encoding="UTF-8"?>
<svg xmlns="http://www.w3.org/2000/svg" xmlns:xlink="http://www.w3.org/1999/xlink" width="32px" height="32px" viewBox="0 0 32 32" version="1.1">
<defs>
<linearGradient id="linear0" gradientUnits="userSpaceOnUse" x1="254" y1="233.5" x2="254" y2="254.666672" gradientTransform="matrix(0.062506,0,0,0.062506,-0.00000381506,13.438787)">
<stop offset="0" style="stop-color:rgb(0%,0%,0%);stop-opacity:0.27451;"/>
<stop offset="1" style="stop-color:rgb(0%,0%,0%);stop-opacity:0;"/>
</linearGradient>
<radialGradient id="radial0" gradientUnits="userSpaceOnUse" cx="450.908936" cy="189.579361" fx="450.908936" fy="189.579361" r="21.166656" gradientTransform="matrix(0.00000017417,-0.0781325,-0.140638,-0.000000101539,54.115213,63.595334)">
<stop offset="0" style="stop-color:rgb(0%,0%,0%);stop-opacity:0.313726;"/>
<stop offset="0.222222" style="stop-color:rgb(0%,0%,0%);stop-opacity:0.27451;"/>
<stop offset="1" style="stop-color:rgb(0%,0%,0%);stop-opacity:0;"/>
</radialGradient>
<radialGradient id="radial1" gradientUnits="userSpaceOnUse" cx="450.908936" cy="189.579361" fx="450.908936" fy="189.579361" r="21.166656" gradientTransform="matrix(-0.00000017417,0.0781325,0.140638,0.000000101539,-22.362178,-7.527477)">
<stop offset="0" style="stop-color:rgb(0%,0%,0%);stop-opacity:0.313726;"/>
<stop offset="0.222222" style="stop-color:rgb(0%,0%,0%);stop-opacity:0.27451;"/>
<stop offset="1" style="stop-color:rgb(0%,0%,0%);stop-opacity:0;"/>
</radialGradient>
<radialGradient id="radial2" gradientUnits="userSpaceOnUse" cx="450.908936" cy="189.579361" fx="450.908936" fy="189.579361" r="21.166656" gradientTransform="matrix(-0.00000017417,-0.0781325,0.140638,-0.000000101539,-22.362178,63.595334)">
<stop offset="0" style="stop-color:rgb(0%,0%,0%);stop-opacity:0.313726;"/>
<stop offset="0.222222" style="stop-color:rgb(0%,0%,0%);stop-opacity:0.27451;"/>
<stop offset="1" style="stop-color:rgb(0%,0%,0%);stop-opacity:0;"/>
</radialGradient>
<radialGradient id="radial3" gradientUnits="userSpaceOnUse" cx="450.908936" cy="189.579361" fx="450.908936" fy="189.579361" r="21.166656" gradientTransform="matrix(0.00000017417,0.0781325,-0.140638,0.000000101539,54.115211,-7.527477)">
<stop offset="0" style="stop-color:rgb(0%,0%,0%);stop-opacity:0.313726;"/>
<stop offset="0.222222" style="stop-color:rgb(0%,0%,0%);stop-opacity:0.27451;"/>
<stop offset="1" style="stop-color:rgb(0%,0%,0%);stop-opacity:0;"/>
</radialGradient>
<linearGradient id="linear1" gradientUnits="userSpaceOnUse" x1="254" y1="-147.5" x2="254" y2="-31.083334" gradientTransform="matrix(0.062506,0,0,0.062506,0.00000124975,13.438781)">
<stop offset="0" style="stop-color:rgb(64.313728%,64.313728%,64.313728%);stop-opacity:0;"/>
<stop offset="1" style="stop-color:rgb(100%,100%,100%);stop-opacity:0.196078;"/>
</linearGradient>
<linearGradient id="linear2" gradientUnits="userSpaceOnUse" x1="254" y1="233.5" x2="254" y2="-105.166656" gradientTransform="matrix(0.062506,0,0,0.062506,-0.00000181239,13.438783)">
<stop offset="0" style="stop-color:rgb(34.509805%,34.509805%,34.509805%);stop-opacity:0;"/>
<stop offset="1" style="stop-color:rgb(98.039216%,98.039216%,98.039216%);stop-opacity:0.196078;"/>
</linearGradient>
</defs>
<g id="surface1">
<path style=" stroke:none;fill-rule:nonzero;fill:url(#linear0);" d="M 3.96875 28.035156 L 27.785156 28.035156 L 27.785156 29.355469 L 3.96875 29.355469 Z M 3.96875 28.035156 "/>
<path style=" stroke:none;fill-rule:nonzero;fill:url(#radial0);" d="M 27.785156 28.035156 L 30.429688 28.035156 L 30.429688 26.710938 L 27.785156 26.710938 Z M 27.785156 28.035156 "/>
<path style=" stroke:none;fill-rule:nonzero;fill:url(#radial1);" d="M 3.96875 28.035156 L 1.324219 28.035156 L 1.324219 29.355469 L 3.96875 29.355469 Z M 3.96875 28.035156 "/>
<path style=" stroke:none;fill-rule:nonzero;fill:url(#radial2);" d="M 3.96875 28.035156 L 1.324219 28.035156 L 1.324219 26.710938 L 3.96875 26.710938 Z M 3.96875 28.035156 "/>
<path style=" stroke:none;fill-rule:nonzero;fill:url(#radial3);" d="M 27.785156 28.035156 L 30.429688 28.035156 L 30.429688 29.355469 L 27.785156 29.355469 Z M 27.785156 28.035156 "/>
<path style=" stroke:none;fill-rule:nonzero;fill:rgb(61.176473%,80.000001%,39.607844%);fill-opacity:1;" d="M 7.277344 4.21875 L 28.777344 4.21875 C 29.507812 4.21875 30.097656 4.8125 30.097656 5.542969 L 30.097656 10.503906 C 30.097656 11.234375 29.507812 11.828125 28.777344 11.828125 L 7.277344 11.828125 C 6.546875 11.828125 5.953125 11.234375 5.953125 10.503906 L 5.953125 5.542969 C 5.953125 4.8125 6.546875 4.21875 7.277344 4.21875 Z M 7.277344 4.21875 "/>
<path style=" stroke:none;fill-rule:nonzero;fill:url(#linear1);" d="M 7.277344 4.21875 L 28.777344 4.21875 C 29.507812 4.21875 30.097656 4.8125 30.097656 5.542969 L 30.097656 10.503906 C 30.097656 11.234375 29.507812 11.828125 28.777344 11.828125 L 7.277344 11.828125 C 6.546875 11.828125 5.953125 11.234375 5.953125 10.503906 L 5.953125 5.542969 C 5.953125 4.8125 6.546875 4.21875 7.277344 4.21875 Z M 7.277344 4.21875 "/>
<path style=" stroke:none;fill-rule:nonzero;fill:rgb(100%,100%,100%);fill-opacity:0.392157;" d="M 7.277344 4.308594 C 6.542969 4.308594 5.953125 4.898438 5.953125 5.628906 L 5.953125 5.796875 C 5.953125 5.0625 6.542969 4.472656 7.277344 4.472656 L 28.777344 4.472656 C 29.507812 4.472656 30.097656 5.0625 30.097656 5.796875 L 30.097656 5.628906 C 30.097656 4.898438 29.507812 4.308594 28.777344 4.308594 Z M 7.277344 4.308594 "/>
<path style=" stroke:none;fill-rule:nonzero;fill:rgb(12.941177%,12.941177%,12.941177%);fill-opacity:1;" d="M 7.277344 4.125 C 6.492188 4.125 5.859375 4.757812 5.859375 5.542969 L 5.859375 10.503906 C 5.859375 11.285156 6.492188 11.921875 7.277344 11.921875 L 28.777344 11.921875 C 29.558594 11.921875 30.191406 11.285156 30.191406 10.503906 L 30.191406 5.542969 C 30.191406 4.757812 29.558594 4.125 28.777344 4.125 Z M 7.277344 4.3125 L 28.777344 4.3125 C 29.457031 4.3125 30.003906 4.859375 30.003906 5.542969 L 30.003906 10.503906 C 30.003906 11.1875 29.457031 11.734375 28.777344 11.734375 L 7.277344 11.734375 C 6.59375 11.734375 6.046875 11.1875 6.046875 10.503906 L 6.046875 5.542969 C 6.046875 4.859375 6.59375 4.3125 7.277344 4.3125 Z M 7.277344 4.3125 "/>
<path style=" stroke:none;fill-rule:nonzero;fill:rgb(68.235296%,83.529413%,50.588238%);fill-opacity:1;" d="M 2.644531 6.863281 C 1.914062 6.863281 1.324219 7.457031 1.324219 8.1875 L 1.324219 26.710938 C 1.324219 27.445312 1.914062 28.035156 2.644531 28.035156 L 29.105469 28.035156 C 29.839844 28.035156 30.429688 27.445312 30.429688 26.710938 L 30.429688 10.171875 L 12.570312 10.171875 C 11.835938 10.171875 11.246094 9.582031 11.246094 8.851562 L 11.246094 6.863281 Z M 2.644531 6.863281 "/>
<path style=" stroke:none;fill-rule:nonzero;fill:url(#linear2);" d="M 2.644531 6.863281 C 1.914062 6.863281 1.324219 7.457031 1.324219 8.1875 L 1.324219 26.710938 C 1.324219 27.445312 1.914062 28.035156 2.644531 28.035156 L 29.105469 28.035156 C 29.839844 28.035156 30.429688 27.445312 30.429688 26.710938 L 30.429688 10.171875 L 12.570312 10.171875 C 11.835938 10.171875 11.246094 9.582031 11.246094 8.851562 L 11.246094 6.863281 Z M 2.644531 6.863281 "/>
<path style=" stroke:none;fill-rule:nonzero;fill:rgb(0%,0%,0%);fill-opacity:0.196078;" d="M 2.644531 28.035156 C 1.914062 28.035156 1.324219 27.445312 1.324219 26.710938 L 1.324219 26.546875 C 1.324219 27.277344 1.914062 27.867188 2.644531 27.867188 L 29.105469 27.867188 C 29.839844 27.867188 30.429688 27.277344 30.429688 26.546875 L 30.429688 26.710938 C 30.429688 27.445312 29.839844 28.035156 29.105469 28.035156 Z M 2.644531 28.035156 "/>
<path style=" stroke:none;fill-rule:nonzero;fill:rgb(100%,100%,100%);fill-opacity:0.392157;" d="M 2.644531 6.953125 C 1.914062 6.953125 1.324219 7.542969 1.324219 8.277344 L 1.324219 8.441406 C 1.324219 7.707031 1.914062 7.117188 2.644531 7.117188 L 11.246094 7.117188 L 11.246094 6.953125 Z M 2.644531 6.953125 "/>
<path style=" stroke:none;fill-rule:nonzero;fill:rgb(100%,100%,100%);fill-opacity:0.392157;" d="M 12.484375 10.34375 C 11.753906 10.34375 11.164062 9.753906 11.164062 9.019531 L 11.164062 8.855469 C 11.164062 9.585938 11.753906 10.179688 12.484375 10.179688 L 30.429688 10.179688 L 30.429688 10.34375 Z M 12.484375 10.34375 "/>
<path style=" stroke:none;fill-rule:nonzero;fill:rgb(12.941177%,12.941177%,12.941177%);fill-opacity:1;" d="M 2.644531 6.769531 C 1.863281 6.769531 1.230469 7.40625 1.230469 8.1875 L 1.230469 26.710938 C 1.230469 27.496094 1.863281 28.128906 2.644531 28.128906 L 29.105469 28.128906 C 29.890625 28.128906 30.523438 27.496094 30.523438 26.710938 L 30.523438 9.984375 L 12.570312 9.984375 C 11.886719 9.984375 11.339844 9.4375 11.339844 8.757812 L 11.339844 6.769531 Z M 2.644531 6.960938 L 11.152344 6.960938 L 11.152344 8.757812 C 11.152344 9.539062 11.785156 10.171875 12.570312 10.171875 L 30.335938 10.171875 L 30.335938 26.710938 C 30.335938 27.394531 29.789062 27.941406 29.105469 27.941406 L 2.644531 27.941406 C 1.964844 27.941406 1.417969 27.394531 1.417969 26.710938 L 1.417969 8.1875 C 1.417969 7.503906 1.964844 6.960938 2.644531 6.960938 Z M 2.644531 6.960938 "/>
<path style=" stroke:none;fill-rule:nonzero;fill:rgb(54.509807%,76.47059%,29.019609%);fill-opacity:1;" d="M 12.410156 12.78125 C 12.238281 12.78125 12.070312 12.847656 11.941406 12.976562 L 11.472656 13.445312 C 11.214844 13.703125 11.214844 14.121094 11.472656 14.378906 L 15.214844 18.121094 L 11.472656 21.863281 C 11.214844 22.125 11.214844 22.539062 11.472656 22.800781 L 11.941406 23.269531 C 12.199219 23.527344 12.617188 23.527344 12.875 23.269531 L 17.554688 18.589844 C 17.8125 18.332031 17.8125 17.914062 17.554688 17.65625 L 12.875 12.976562 C 12.746094 12.847656 12.578125 12.78125 12.410156 12.78125 Z M 16.539062 21.429688 C 16.171875 21.429688 15.875 21.726562 15.875 22.089844 L 15.875 22.753906 C 15.875 23.121094 16.171875 23.414062 16.539062 23.414062 L 19.84375 23.414062 C 20.210938 23.414062 20.507812 23.121094 20.507812 22.753906 L 20.507812 22.089844 C 20.507812 21.726562 20.210938 21.429688 19.84375 21.429688 Z M 16.539062 21.429688 "/>
<path style=" stroke:none;fill-rule:nonzero;fill:rgb(0%,0%,0%);fill-opacity:0.235294;" d="M 12.410156 12.78125 C 12.238281 12.78125 12.070312 12.847656 11.941406 12.976562 L 11.472656 13.445312 C 11.308594 13.609375 11.25 13.835938 11.292969 14.046875 C 11.316406 13.925781 11.378906 13.808594 11.472656 13.710938 L 11.941406 13.246094 C 12.070312 13.113281 12.238281 13.050781 12.410156 13.050781 C 12.578125 13.050781 12.746094 13.113281 12.875 13.246094 L 17.085938 17.453125 L 17.554688 17.921875 C 17.648438 18.019531 17.710938 18.132812 17.734375 18.257812 C 17.777344 18.046875 17.71875 17.820312 17.554688 17.65625 L 12.875 12.976562 C 12.746094 12.847656 12.578125 12.78125 12.410156 12.78125 Z M 15.082031 18.257812 L 11.472656 21.863281 C 11.308594 22.027344 11.25 22.253906 11.292969 22.464844 C 11.316406 22.34375 11.378906 22.226562 11.472656 22.132812 L 15.214844 18.390625 Z M 16.539062 21.429688 C 16.171875 21.429688 15.875 21.726562 15.875 22.089844 L 15.875 22.359375 C 15.875 21.992188 16.171875 21.699219 16.539062 21.699219 L 19.84375 21.699219 C 20.210938 21.699219 20.507812 21.992188 20.507812 22.359375 L 20.507812 22.089844 C 20.507812 21.726562 20.210938 21.429688 19.84375 21.429688 Z M 16.539062 21.429688 "/>
<path style=" stroke:none;fill-rule:nonzero;fill:rgb(100%,100%,100%);fill-opacity:0.392157;" d="M 11.289062 14.023438 C 11.25 14.234375 11.3125 14.457031 11.472656 14.617188 L 15.089844 18.234375 L 15.214844 18.109375 L 11.472656 14.367188 C 11.375 14.269531 11.3125 14.152344 11.289062 14.023438 Z M 17.738281 18.234375 C 17.710938 18.359375 17.652344 18.480469 17.554688 18.578125 L 12.875 23.257812 C 12.617188 23.515625 12.199219 23.515625 11.941406 23.257812 L 11.472656 22.789062 C 11.375 22.691406 11.3125 22.570312 11.289062 22.445312 C 11.25 22.652344 11.3125 22.875 11.472656 23.035156 L 11.941406 23.503906 C 12.199219 23.765625 12.617188 23.765625 12.875 23.503906 L 17.085938 19.292969 L 17.554688 18.828125 C 17.714844 18.664062 17.777344 18.441406 17.738281 18.234375 Z M 15.875 22.742188 L 15.875 22.988281 C 15.875 23.355469 16.171875 23.652344 16.539062 23.652344 L 19.84375 23.652344 C 20.210938 23.652344 20.507812 23.355469 20.507812 22.988281 L 20.507812 22.742188 C 20.507812 23.109375 20.210938 23.402344 19.84375 23.402344 L 16.539062 23.402344 C 16.171875 23.402344 15.875 23.109375 15.875 22.742188 Z M 15.875 22.742188 "/>
<path style=" stroke:none;fill-rule:nonzero;fill:rgb(12.941177%,12.941177%,12.941177%);fill-opacity:1;" d="M 12.410156 12.6875 C 12.214844 12.6875 12.023438 12.761719 11.875 12.910156 L 11.40625 13.378906 C 11.113281 13.671875 11.113281 14.152344 11.40625 14.445312 L 15.082031 18.121094 L 11.40625 21.796875 C 11.113281 22.09375 11.113281 22.570312 11.40625 22.867188 L 11.875 23.332031 C 12.167969 23.628906 12.648438 23.628906 12.941406 23.332031 L 17.152344 19.125 L 17.621094 18.65625 C 17.914062 18.363281 17.914062 17.882812 17.621094 17.589844 L 12.941406 12.910156 C 12.796875 12.761719 12.601562 12.6875 12.410156 12.6875 Z M 12.410156 12.875 C 12.554688 12.875 12.699219 12.929688 12.808594 13.042969 L 17.488281 17.722656 C 17.710938 17.945312 17.710938 18.300781 17.488281 18.523438 L 12.808594 23.203125 C 12.585938 23.425781 12.230469 23.425781 12.007812 23.203125 L 11.539062 22.734375 C 11.316406 22.511719 11.316406 22.152344 11.539062 21.929688 L 15.347656 18.121094 L 11.539062 14.3125 C 11.316406 14.089844 11.316406 13.734375 11.539062 13.511719 L 12.007812 13.042969 C 12.117188 12.929688 12.261719 12.875 12.410156 12.875 Z M 16.539062 21.335938 C 16.121094 21.335938 15.78125 21.675781 15.78125 22.089844 L 15.78125 22.753906 C 15.78125 23.167969 16.121094 23.507812 16.539062 23.507812 L 19.847656 23.507812 C 20.261719 23.507812 20.601562 23.167969 20.601562 22.753906 L 20.601562 22.089844 C 20.601562 21.675781 20.261719 21.335938 19.847656 21.335938 Z M 16.539062 21.523438 L 19.847656 21.523438 C 20.160156 21.523438 20.414062 21.773438 20.414062 22.089844 L 20.414062 22.753906 C 20.414062 23.070312 20.160156 23.320312 19.847656 23.320312 L 16.539062 23.320312 C 16.222656 23.320312 15.96875 23.070312 15.96875 22.753906 L 15.96875 22.089844 C 15.96875 21.773438 16.222656 21.523438 16.539062 21.523438 Z M 16.539062 21.523438 "/>
</g>
</svg>

<svg xmlns="http://www.w3.org/2000/svg" width="32" height="32"><defs><linearGradient id="a" gradientUnits="userSpaceOnUse" x1="254" y1="233.5" x2="254" y2="254.667" gradientTransform="matrix(.0625 0 0 .0625 0 13.439)"><stop offset="0" stop-opacity=".275"/><stop offset="1" stop-opacity="0"/></linearGradient><radialGradient id="b" gradientUnits="userSpaceOnUse" cx="450.909" cy="189.579" fx="450.909" fy="189.579" r="21.167" gradientTransform="matrix(0 -.07813 -.14064 0 54.115 63.595)"><stop offset="0" stop-opacity=".314"/><stop offset=".222" stop-opacity=".275"/><stop offset="1" stop-opacity="0"/></radialGradient><radialGradient id="c" gradientUnits="userSpaceOnUse" cx="450.909" cy="189.579" fx="450.909" fy="189.579" r="21.167" gradientTransform="matrix(0 .07813 .14064 0 -22.362 -7.527)"><stop offset="0" stop-opacity=".314"/><stop offset=".222" stop-opacity=".275"/><stop offset="1" stop-opacity="0"/></radialGradient><radialGradient id="d" gradientUnits="userSpaceOnUse" cx="450.909" cy="189.579" fx="450.909" fy="189.579" r="21.167" gradientTransform="matrix(0 -.07813 .14064 0 -22.362 63.595)"><stop offset="0" stop-opacity=".314"/><stop offset=".222" stop-opacity=".275"/><stop offset="1" stop-opacity="0"/></radialGradient><radialGradient id="e" gradientUnits="userSpaceOnUse" cx="450.909" cy="189.579" fx="450.909" fy="189.579" r="21.167" gradientTransform="matrix(0 .07813 -.14064 0 54.115 -7.527)"><stop offset="0" stop-opacity=".314"/><stop offset=".222" stop-opacity=".275"/><stop offset="1" stop-opacity="0"/></radialGradient><linearGradient id="f" gradientUnits="userSpaceOnUse" x1="254" y1="-147.5" x2="254" y2="-31.083" gradientTransform="matrix(.0625 0 0 .0625 0 13.439)"><stop offset="0" stop-color="#a4a4a4" stop-opacity="0"/><stop offset="1" stop-color="#fff" stop-opacity=".196"/></linearGradient><linearGradient id="g" gradientUnits="userSpaceOnUse" x1="254" y1="233.5" x2="254" y2="-105.167" gradientTransform="matrix(.0625 0 0 .0625 0 13.439)"><stop offset="0" stop-color="#585858" stop-opacity="0"/><stop offset="1" stop-color="#fafafa" stop-opacity=".196"/></linearGradient><linearGradient id="h" gradientUnits="userSpaceOnUse" x1="243.417" y1="-147.5" x2="243.417" y2="233.5" gradientTransform="matrix(.0625 0 0 .0625 0 13.439)"><stop offset="0" stop-color="#a4a4a4" stop-opacity="0"/><stop offset="1" stop-color="#fff" stop-opacity=".196"/></linearGradient></defs><path d="M3.969 28.035h23.816v1.32H3.97zm0 0" fill="url(#a)"/><path d="M27.785 28.035h2.645v-1.324h-2.645zm0 0" fill="url(#b)"/><path d="M3.969 28.035H1.324v1.32H3.97zm0 0" fill="url(#c)"/><path d="M3.969 28.035H1.324v-1.324H3.97zm0 0" fill="url(#d)"/><path d="M27.785 28.035h2.645v1.32h-2.645zm0 0" fill="url(#e)"/><path d="M7.277 4.219h21.5c.73 0 1.32.593 1.32 1.324v4.96c0 .731-.59 1.325-1.32 1.325h-21.5c-.73 0-1.324-.594-1.324-1.324V5.543c0-.73.594-1.324 1.324-1.324zm0 0" fill="#7cb342"/><path d="M7.277 4.219h21.5c.73 0 1.32.593 1.32 1.324v4.96c0 .731-.59 1.325-1.32 1.325h-21.5c-.73 0-1.324-.594-1.324-1.324V5.543c0-.73.594-1.324 1.324-1.324zm0 0" fill="url(#f)"/><path d="M7.277 4.219a1.32 1.32 0 0 0-1.324 1.324v.164c0-.734.59-1.324 1.324-1.324h21.5c.73 0 1.32.59 1.32 1.324v-.164a1.32 1.32 0 0 0-1.32-1.324zm0 0" fill="#e6e6e6" fill-opacity=".588"/><path d="M7.277 4.125c-.785 0-1.418.633-1.418 1.418v4.96c0 .782.633 1.419 1.418 1.419h21.5c.782 0 1.414-.637 1.414-1.418V5.543c0-.785-.632-1.418-1.414-1.418zm0 .188h21.5c.68 0 1.227.546 1.227 1.23v4.96c0 .684-.547 1.231-1.227 1.231h-21.5c-.683 0-1.23-.546-1.23-1.23V5.543c0-.684.547-1.23 1.23-1.23zm0 0" fill="#212121"/><path d="M2.645 6.863c-.73 0-1.32.594-1.32 1.324v18.524c0 .734.59 1.324 1.32 1.324h26.46a1.32 1.32 0 0 0 1.325-1.324V10.17H12.57a1.32 1.32 0 0 1-1.324-1.32V6.864zm0 0" fill="#9ccc65"/><path d="M2.645 6.863c-.73 0-1.32.594-1.32 1.324v18.524c0 .734.59 1.324 1.32 1.324h26.46a1.32 1.32 0 0 0 1.325-1.324V10.17H12.57a1.32 1.32 0 0 1-1.324-1.32V6.864zm0 0" fill="url(#g)"/><path d="M2.645 28.035c-.73 0-1.32-.59-1.32-1.324v-.164c0 .73.59 1.32 1.32 1.32h26.46a1.32 1.32 0 0 0 1.325-1.32v.164a1.32 1.32 0 0 1-1.325 1.324zm0 0" fill-opacity=".196"/><path d="M2.645 6.863c-.73 0-1.32.594-1.32 1.324v.168c0-.734.59-1.324 1.32-1.324h8.601v-.168zm0 0M12.484 10.254c-.73 0-1.32-.59-1.32-1.32v-.168c0 .734.59 1.324 1.32 1.324H30.43v.164zm0 0" fill="#e6e6e6" fill-opacity=".937"/><path d="M2.645 6.77c-.782 0-1.415.636-1.415 1.418V26.71c0 .785.633 1.418 1.415 1.418h26.46c.786 0 1.418-.633 1.418-1.418V9.984H12.57c-.683 0-1.23-.546-1.23-1.226V6.77zm0 .19h8.507v1.798c0 .781.633 1.414 1.418 1.414h17.766V26.71c0 .684-.547 1.23-1.23 1.23H2.644c-.68 0-1.227-.546-1.227-1.23V8.188c0-.684.547-1.227 1.227-1.227zm0 0" fill="#212121"/><path d="M12.41 12.781a.66.66 0 0 0-.469.196l-.468.468a.66.66 0 0 0 0 .934l3.742 3.742-3.742 3.742a.665.665 0 0 0 0 .938l.468.469a.66.66 0 0 0 .934 0l4.68-4.68a.66.66 0 0 0 0-.934l-4.68-4.68a.657.657 0 0 0-.465-.195zm4.13 8.649a.663.663 0 0 0-.665.66v.664c0 .367.297.66.664.66h3.305a.66.66 0 0 0 .664-.66v-.664a.663.663 0 0 0-.664-.66zm0 0" fill="#7cb342"/><path d="M12.41 12.781a.66.66 0 0 0-.469.196l-.468.468a.66.66 0 0 0 0 .934l3.742 3.742-3.742 3.742a.665.665 0 0 0 0 .938l.468.469a.66.66 0 0 0 .934 0l4.68-4.68a.66.66 0 0 0 0-.934l-4.68-4.68a.657.657 0 0 0-.465-.195zm4.13 8.649a.663.663 0 0 0-.665.66v.664c0 .367.297.66.664.66h3.305a.66.66 0 0 0 .664-.66v-.664a.663.663 0 0 0-.664-.66zm0 0" fill="url(#h)"/><path d="M12.41 12.688a.751.751 0 0 0-.535.222l-.469.469a.757.757 0 0 0 0 1.066l3.676 3.676-3.676 3.676a.762.762 0 0 0 0 1.07l.469.465a.75.75 0 0 0 1.066 0l4.211-4.207.47-.469a.757.757 0 0 0 0-1.066l-4.68-4.68a.742.742 0 0 0-.532-.223zm0 .187a.55.55 0 0 1 .399.168l4.68 4.68a.563.563 0 0 1 0 .8l-4.68 4.68a.563.563 0 0 1-.801 0l-.469-.469a.568.568 0 0 1 0-.804l3.809-3.809-3.809-3.808a.563.563 0 0 1 0-.801l.469-.469a.552.552 0 0 1 .402-.168zm4.13 8.46a.758.758 0 0 0-.759.755v.664c0 .414.34.754.758.754h3.309c.414 0 .754-.34.754-.754v-.664a.757.757 0 0 0-.754-.754zm0 .188h3.308c.312 0 .566.25.566.567v.664a.564.564 0 0 1-.566.566h-3.309a.565.565 0 0 1-.57-.566v-.664c0-.317.254-.567.57-.567zm0 0" fill="#212121"/></svg>
